X: 37931
T: Space Party
R: reel
M: 4/4
K: Gdorian
FGBc d2/d/ d/dc|Bggf dGGG|dcBG cBGB|FGBd cBcd|
B3c d3c|Bggf d2/GG/G/G|dcBG cBGB|1 FGBc BBBB:|2 FGBc Bcdf||
gggf bbbg|fbgf dfcd|gfdc BGGG|gfdB ccdf|
gbfg bbbg|fbgf dfcd|1 gfdc B2/GG/G/G|FGBc BBdf:|2 gfdc GBdc|BGFG B3B||

